X:1
T:Mak žari
T:Benjamin Ipavec (1829-1908)
T:Cvetko Golar
T:Copyright © Primož Hladnik
T:Mak žari
T:Copyright © Primož Hladnik
T:Copyright © Primož Hladnik
C:Benjamin Ipavec
C:(1829-1908)
Z:Cvetko Golar
Z:Copyright © Primož Hladnik
%%score 1 { ( 2 5 ) | ( 3 4 ) }
L:1/8
M:4/4
K:B
V:1 treble-8 transpose=-12 nm="Tenor"
V:2 treble nm="Piano"
V:5 treble 
V:3 bass 
V:4 bass 
V:1
 z8 | z4 z2 !fermata!z2 |!p! F3 F B3 z |!<(! F3 F d3!<)! z |!mf! d3 B cABG | F2 z2 z4 | %6
w: ||Mak ža- ri,|mak ža- ri,|kje si, de- kle mo- je|ti!|
 F4!>(! c3 B | B3!>)! z z4 |!p!!<(! !tenuto!.A2 A z!<)! BB!>(!^^G=G!>)! | A4 z4 | %10
w: Mak, mak ža-|ri.|Po- mniš, zla- ti son- čni|žar|
!<(! A3 A B!<)!B^^G=G |!>(! A4!>)! z4 |"^cresc." A3 A dcBA | B2 z2 z4 | B3 B e=dcB | c2 z2 z4 | %16
w: bli- skal je na na- jin|par,|vsa go- re- la si v\_o-|braz,|vsa kot mak v\_po- le- tni|čas.|
 c2 c!<(!c (cf)e!<)!=d | c4 z4 |!f! c2 c2 ^Bc^d^e |"^rit." c4 z4 | %20
w: V\_tvo- je o- či _ za- to-|pljen|sa- njal sem ne- be- ški|sen.|
!p!"^a tempo""^a tempo" F3 F B3 z |!<(! F3 F =d2!<)! d2 |!f! =d3 z =c3 B | B4 z4 | %24
w: Zdaj sem sam,|zdaj sem sam. O|kje, kje si|ti!|
!p!!<(! B3 B B3 z | c3 c!<)! c3!ff! z | !>!d3 z !>!e3 d | dcBc d3 z | z8 |"^ritard." z8 |] %30
w: Mak ža- ri,|mak ža- ri,|kje, kje si|de- kle mo- je, ti!|||
V:2
 z [Ac] [Aeg]2- ([Aeg][Bd][df][DF]- | %1
!<(! ([DF])[EG]) [GB]2-!<)! ([GB]!>(![EGA])!fermata![EAc]!>)! z | %2
 z ([DF] [Ac]2-) ([Ac][DF][DB][B,D]) |!<(! ([CE][A,C][EG][B,D])!<)! [DF]4 | %4
 (!arpeggio![DFBd]3 [GB]) ([Ac][FA][GB][EG]) | z [DF] [df]2- [df][FB] [Bd]2- | %6
 ([Bd][DF][DB][B,D]) ([CE][A,C][EG][B,D]) | ([DF][B,D][DF][B,D]) z ([B,=D] [^DF][B,D]) | %8
!p! [CA]!<(![CA][CA][CA] [CB][CB]!<)![C^^G][C=G] | (A2!>(! F2 G2 G2)!>)! | %10
 [CAc][CAc][CAc][CAc] [CBc][CBc][C^^Gc][C=Gc] | (cCcC) (cCcC-) | [FA]4 [CFA]A,[CFA]A, | %13
 (B2 c2) (A2 c2) | [GB]4 ([=DGB]B,[DGB]B,) | c2 =d2 ^B2 c2 | [^E=Bc]C[E=Bc]C!<(! [F=Ac]C[FAc]C | %17
 (c2 d2!<)! ^B2 c2) |!f! ([^Gce][^Ec][^Gc]E) ([FG^B]D[FGB]D) | [^Ec]G[Ec-]=G- ([EFc]G[F=d][Ec]) | %20
!pp! z [=DF] [B=d]2- [Bd][DF][FB][B,D] | ([CE][A,C][E=G][B,=D]) ([DF][B,D][G=d][DG]) | %22
!mf! [E=G=d]GEG [=A=c]F=CF | z [=D=G] [B,B]2- [B,B][DG][B,B][DG]- | %24
!p!!<(! [DG][=D^G] [B,B]2- [B,B][EG][B,B][EG]- | [EG](([^EB]!<)! [Cc]2-)) ([Cc][F^A][Cc][FA]) | %26
 z [D=AB] [ABd][DAB] [Gce] [EG]2 [EGBd-] | %27
 ([F^Ad][Ac][GB][Ac])!>(! ([DFBd][DFBd][DFBd]!>)![DFBd]) | %28
!mf! z!<(! [DF] [FB=d]2-!<)!!>(! [FBd][FB][Bd]!>)![DF]- | %29
 [DF][E-G]!pp! [EAc]2- [EAc][DF] !fermata![DFBd]2 |] %30
V:3
 B,3 F B,, F,3 | B,,3 F, B,,3 !fermata!F, | B,,3 F, B,,2 F,2 | B,,2 F,2 B,,F,B,F, | %4
 B,,F,B,F, B,,F,B,F, | B,,3 F, D,3 F,- | F,2 F,4 F,2 | F,4 ^E,4 | F,2 ^^F,2 G,2 ^E,2 | %9
 ^F,2 ^^D,2 ^E,2 C,2 | F,2 ^^F,2 G,2 ^E,2 | ^F,2 ^^D,2 ^E,2 C,2 |"^cresc." F,2 =E,2 D,2 D,,2 | %13
 [G,,G,]2 A,2 ^^F,2 A,2 | G,2 F,2 E,2 E,,2 | [=A,,=A,]2 B,2 G,2 A,2 | G,4 F,4 | G,4 F,2 F,2 | %18
 [G,,G,]4 [G,,D,G,]4 | G,2 CB, A,2 [F,,F,]2 | B,,3 F, B,,2 F,2 | B,,2 F,2 B,,2 B,2 | %22
 =A,,2 =A,4 A,2 | G,,3 =G,- G,3 F, | =F,,3 =F, E,3 =D, | C,3 G, ^F,4 | %26
!ff! [B,,B,]4 [C,^G,]2 [C,,C,]2 | [F,,F,]3 [F,,E,] [B,,F,]4 | B,,3 F,- [F,B,]4 | B,3 F, F,3 z |] %30
V:4
 B,4 B,,4 | B,,4 !fermata!B,,4 | B,,4 B,,4 | B,,4 B,,4 | B,,4 B,,4 | B,,4 D,4 | F,,8 | B,,8 | x8 | %9
 x8 | x8 | x8 | x8 | x8 | x8 | x8 | x8 | =E,4 ^F,2 ^^F,2 | x8 | C,4 F,2 x2 | B,,4 B,,4 | %21
 B,,4 B,,4 | =A,,4 =D,4 | ^G,,4 F,,4 | x8 | C,4 x4 | x8 | x8 | B,,8 | %29
 B,,4 B,,3- !fermata![B,,,B,,] |] %30
V:5
 x8 | x8 | x8 | x8 | x8 | x8 | x8 | x8 | x8 | ACFC ^GC^^GC | x8 | (A2 ^^F2 ^G2 ^^G2) | C C2 C x4 | %13
 GDcD ADcD- | D D2 D x4 | (cE=dE ^BEcE) | x8 | (ACGC ^^GD^AE) | x8 | x8 | x8 | x8 | x8 | x8 | x8 | %25
 x8 | x8 | E3 E x4 | x8 | x8 |] %30

